assets/shadow/logo.svg

<svg width="64" height="64" viewBox="0 0 64 64" fill="none" xmlns="http://www.w3.org/2000/svg">
<rect width="64" height="64" fill="white"/>
<path d="M53.504 25.1947C53.504 25.1947 53.504 25.1841 53.504 25.1947C53.4613 25.0454 53.4293 24.9067 53.3866 24.7681C53.2586 24.3307 53.1306 23.9041 52.9706 23.4774C51.4773 19.2641 48.6613 15.6694 45.024 13.2054C44.6186 12.9281 44.2026 12.6721 43.776 12.4267C43.7333 12.3947 43.68 12.3734 43.6373 12.3414C43.4133 12.2241 43.1573 12.1494 42.88 12.1494C42.2933 12.1494 41.7706 12.4694 41.504 12.9494C41.4933 12.9707 41.4826 12.9814 41.472 13.0027C41.472 13.0027 41.472 13.0027 41.472 13.0134L40.4693 14.7414L38.4426 18.2507L36.6186 21.4187L32.224 29.0347L32.0853 29.2801L31.8613 29.6641C31.776 29.8561 31.744 30.0587 31.744 30.2827C31.744 31.1894 32.48 31.9254 33.3866 31.9254C33.504 31.9254 33.632 31.9147 33.7386 31.8934L33.8666 31.8614H33.8773L33.952 31.8401L34.3466 31.7334L42.9013 29.4401L46.4213 28.5014L50.336 27.4561L52.064 26.9974L52.608 26.8481C53.152 26.5921 53.5253 26.0481 53.5253 25.4081C53.5146 25.3227 53.5146 25.2587 53.504 25.1947ZM45.5786 25.4614L42.048 26.4107L36.5546 27.8827L39.3813 22.9867L41.2053 19.8294L43.232 16.3201C46.0693 18.3041 48.2773 21.1201 49.504 24.4054L45.5786 25.4614Z" fill="#0F0F0F"/>
<path d="M43.9893 35.3706C43.9893 35.5199 43.9679 35.6692 43.9359 35.8186C43.9146 35.8826 43.8933 35.9466 43.8719 36.0106C42.1759 41.3332 37.1839 45.1946 31.2959 45.1946C29.4186 45.1946 27.6373 44.7999 26.0266 44.1066C25.0453 43.6799 24.1279 43.1359 23.2959 42.4959C22.4426 41.8452 21.6746 41.0879 21.0026 40.2559C20.7679 39.9679 20.5439 39.6692 20.3413 39.3492C19.8186 38.5706 19.3706 37.7279 19.0186 36.8426C18.6346 35.8826 18.3679 34.8586 18.2293 33.8026C18.1439 33.2159 18.1119 32.6186 18.1119 31.9999C18.1119 25.1946 23.2639 19.5839 29.8879 18.8799C30.0159 18.8692 30.1439 18.8479 30.2826 18.8479C31.2746 18.8586 32.0746 19.6692 32.0746 20.6612C32.0746 20.8959 32.0319 21.1199 31.9466 21.3332L31.6906 21.7706C31.4133 22.1439 30.9866 22.3999 30.4959 22.4639C30.4533 22.4639 30.4106 22.4746 30.3679 22.4746C25.5253 22.9439 21.7279 27.0399 21.7279 32.0106C21.7279 32.2986 21.7386 32.5866 21.7599 32.8639C21.8559 33.9412 22.1226 34.9652 22.5493 35.9039C22.6879 36.2132 22.8373 36.5119 23.0079 36.7999C23.3279 37.3546 23.7013 37.8666 24.1279 38.3466C24.4373 38.6986 24.7786 39.0292 25.1413 39.3279C25.9519 40.0106 26.8693 40.5652 27.8719 40.9492C28.9386 41.3652 30.1013 41.5892 31.3173 41.5892C35.5839 41.5892 39.1999 38.7946 40.4373 34.9439C40.4586 34.8799 40.4799 34.8159 40.5013 34.7412C40.6933 34.2292 41.1199 33.8239 41.6426 33.6532C41.7066 33.6319 41.7706 33.6212 41.8346 33.5999C41.9519 33.5786 42.0799 33.5679 42.1973 33.5679C43.1786 33.5679 43.9893 34.3786 43.9893 35.3706Z" fill="#FFA940"/>
<path d="M52.0853 32.9919C52.0747 33.2053 52.064 33.408 52.0533 33.6106C51.232 44.352 42.2507 52.8213 31.296 52.8213C28.032 52.8213 24.9493 52.0746 22.1973 50.7306C21.2373 50.2719 20.3307 49.728 19.456 49.1306C18.592 48.5333 17.7707 47.8719 17.0133 47.1466C15.264 45.5039 13.8027 43.5626 12.704 41.3973C12.288 40.5653 11.9147 39.712 11.616 38.8266C11.2747 37.8453 11.008 36.8319 10.816 35.7866C10.592 34.5599 10.4747 33.3013 10.4747 32.0106C10.4747 20.512 19.7973 11.2 31.2853 11.2C32.3947 11.2 33.4827 11.2853 34.5493 11.456C34.7307 11.488 34.9013 11.5093 35.072 11.552C35.7973 11.7973 36.3093 12.4693 36.3093 13.2693C36.3093 13.5253 36.256 13.76 36.1707 13.9733C36.1707 13.984 36.16 13.9946 36.16 13.9946L35.9787 14.3146C35.9787 14.3146 35.9787 14.3146 35.9787 14.3253C35.648 14.784 35.1147 15.0826 34.5067 15.0826C34.4853 15.0826 34.464 15.0826 34.4427 15.0826C34.4427 15.0826 34.4427 15.0826 34.432 15.0826C34.272 15.0506 34.112 15.0186 33.9413 14.9973C33.0773 14.8586 32.192 14.7946 31.2853 14.7946C21.7707 14.7946 14.0587 22.5066 14.0587 32.0213C14.0587 32.992 14.144 33.9413 14.2933 34.8693C14.464 35.9146 14.7413 36.9386 15.0933 37.9093C15.4133 38.7946 15.808 39.6479 16.2667 40.4586C16.9813 41.7279 17.856 42.912 18.8693 43.9573C19.5947 44.7146 20.4053 45.408 21.2587 46.0266C22.112 46.6453 23.0293 47.1786 24 47.6266C26.2187 48.6613 28.6827 49.248 31.296 49.248C40.3947 49.248 47.84 42.1973 48.48 33.2693C48.4907 33.1519 48.5013 33.0346 48.5013 32.9173C48.608 32.2986 49.024 31.7866 49.5787 31.5519C49.5787 31.5519 49.5787 31.5519 49.5893 31.5519L50.0373 31.4346C50.1227 31.424 50.208 31.4133 50.2933 31.4133C51.2213 31.3706 51.9893 32.0853 52.0853 32.9919Z" fill="#0F0F0F"/>
</svg>

<svg viewBox="0 0 64 64" xmlns="http://www.w3.org/2000/svg">
    <path fill="#fff" fill-rule="evenodd" d="M64 32C64 14.327 49.673 0 32 0 14.327 0 0 14.327 0 32c0 17.673 14.327 32 32 32 17.673 0 32-14.327 32-32Z"/>
    <path fill="#0f0f0f" d="M53.504 25.195s0-.01 0 0c-.043-.15-.075-.288-.117-.427a18.175 18.175 0 0 0-.416-1.29 20.843 20.843 0 0 0-7.947-10.273 18.847 18.847 0 0 0-1.248-.778c-.043-.032-.096-.054-.139-.086a1.628 1.628 0 0 0-.757-.192c-.587 0-1.11.32-1.376.8-.01.022-.021.032-.032.054v.01l-1.003 1.728-2.026 3.51-1.824 3.168-4.395 7.616-.139.245-.224.384a1.488 1.488 0 0 0-.117.619c0 .906.736 1.642 1.643 1.642.117 0 .245-.01.352-.032l.128-.032h.01l.075-.02.395-.108L42.9 29.44l3.52-.939 3.915-1.045 1.728-.459.544-.149c.544-.256.917-.8.917-1.44-.01-.085-.01-.15-.021-.213Zm-7.925.266-3.531.95-5.493 1.472 2.826-4.896 1.824-3.158 2.027-3.509a17.248 17.248 0 0 1 6.272 8.085l-3.925 1.056Z"/>
    <path fill="#ffa940" d="M43.99 35.37c0 .15-.022.3-.054.449l-.064.192c-1.696 5.322-6.688 9.184-12.576 9.184a13.3 13.3 0 0 1-5.27-1.088 12.956 12.956 0 0 1-2.73-1.611 13.41 13.41 0 0 1-2.293-2.24 9.381 9.381 0 0 1-.662-.907 13.374 13.374 0 0 1-1.322-2.506c-.384-.96-.651-1.984-.79-3.04A12.476 12.476 0 0 1 18.112 32c0-6.805 5.152-12.416 11.776-13.12.128-.01.256-.032.395-.032a1.814 1.814 0 0 1 1.664 2.485l-.256.438c-.278.373-.704.629-1.195.693-.043 0-.085.01-.128.01-4.843.47-8.64 4.566-8.64 9.537a9.33 9.33 0 0 0 .821 3.893c.139.31.288.608.459.896.32.555.693 1.067 1.12 1.547.31.352.65.682 1.013.98a9.54 9.54 0 0 0 6.176 2.262c4.267 0 7.883-2.794 9.12-6.645.022-.064.043-.128.064-.203a1.833 1.833 0 0 1 1.142-1.088c.064-.021.128-.032.192-.053a1.805 1.805 0 0 1 2.155 1.77Z"/>
    <path fill="#0f0f0f" d="M52.085 32.992c-.01.213-.021.416-.032.619-.821 10.741-9.802 19.21-20.757 19.21-3.264 0-6.347-.746-9.099-2.09a20.66 20.66 0 0 1-5.184-3.584 20.789 20.789 0 0 1-4.309-5.75 20.185 20.185 0 0 1-1.088-2.57 20.53 20.53 0 0 1-.8-3.04 20.979 20.979 0 0 1-.341-3.776c0-11.499 9.322-20.811 20.81-20.811 1.11 0 2.198.085 3.264.256.182.032.352.053.523.096a1.807 1.807 0 0 1 1.237 1.717c0 .256-.053.491-.138.704 0 .011-.011.022-.011.022l-.181.32v.01c-.331.459-.864.758-1.472.758h-.075a16.735 16.735 0 0 0-3.147-.288c-9.514 0-17.226 7.712-17.226 17.226 0 .971.085 1.92.234 2.848.171 1.046.448 2.07.8 3.04.32.886.715 1.739 1.174 2.55a17.046 17.046 0 0 0 2.602 3.498 17.69 17.69 0 0 0 2.39 2.07c.853.618 1.77 1.152 2.741 1.6a17.196 17.196 0 0 0 7.296 1.621c9.099 0 16.544-7.05 17.184-15.979.01-.117.021-.234.021-.352a1.82 1.82 0 0 1 1.078-1.365h.01l.448-.117c.086-.011.171-.022.256-.022.928-.042 1.696.672 1.792 1.579Z"/>
</svg>
